X: 4737
T: Boys Of Ballivanich, The
R: reel
M: 4/4
K: Bminor
f2 fe dB Bd|AB B2 fa ag|f2 fe dB Bd|cA A2 eA ce|
f2 fe dB Bd|AB B2 fa af|g2 gf ef ed|cA A2 eA ce|
fB BA B3 e|f2 fe fa ag|fB BA B3 d|cA A2 eA ce|
fB BA B2-Be|f2 fe fa af|g2 gf ef ed|cA A2 eA ce|
d2 ag ef fe|dB B2 df fe|c2 af ef ed|cA A2 eA ce|
d2 ag ef fe|dB B2 df fe|A2 af ef ed|cA A2 eA ce|
B2 ag ef fe|dB B2 df fe|c2 af ef ed|cA A2 eA ce|
d2 ag ef fe|dB B2 df fe|A2 af ef ed|cA A2 eA cA|
A2- A2 z4||

